!!!COM:	Bach, Johann Sebastian
!!!CDT:	1685/02/21/-1750/07/28/
!!!OTL@@DE:	Ich ruf zu dir, Herr Jesu Christ
!!!SCT:	BWV 177/5
!!!PC#:	71
!!!AGN:	chorale
**kern	**kern	**kern	**kern
*ICvox	*ICvox	*ICvox	*ICvox
*Ibass	*Itenor	*Ialto	*Isoprn
*I"Bass	*I"Tenor	*I"Alto	*I"Soprano
*>[A,A,B]	*>[A,A,B]	*>[A,A,B]	*>[A,A,B]
*>norep[A,B]	*>norep[A,B]	*>norep[A,B]	*>norep[A,B]
*>A	*>A	*>A	*>A
*clefF4	*clefGv2	*clefG2	*clefG2
*k[f#]	*k[f#]	*k[f#]	*k[f#]
*e:	*e:	*e:	*e:
*M4/4	*M4/4	*M4/4	*M4/4
*met(c)	*met(c)	*met(c)	*met(c)
*MM100	*MM100	*MM100	*MM100
4D#	4B	4f#	4b
=1	=1	=1	=1
[2E	8B	4e	8aL
.	4c	.	8gJ
.	.	4d#	8f#L
.	16BLL	.	16gL
.	16AJJ	.	16aJJ
8EL]	[2B	8eL	8gL
8F#J	.	8d#J	8f#J
8GL	.	8eL	8eL
8F#J	.	8d#J	8f#J
=2	=2	=2	=2
8EL	8BL]	4.e	8.gL
8DnXJ	8BJ	.	.
.	.	.	16aJk
4C	16ALL	.	4a
.	16G	.	.
.	16F#LL	8f#	.
.	16EJJJJ	.	.
4BB;	4F#;	4d#;	4b;
4E	4G	4e	8bL
.	.	.	8ccJ
=3	=3	=3	=3
4F#	4A	4dnX	8ddL
.	.	.	8ccJ
4G	8GL	4d	8bL
.	8FJ	.	8aJ
8CL	4E	4e	4g
8DJ	.	.	.
8CL	8F#L	4d	8aL
8BBJ	8G#J	.	8bJ
=4	=4	=4	=4
2AA	8AL	8c	2cc
.	8GnXJ	4e	.
.	4F#	.	.
.	.	8d#	.
4EE;	4G;	4e;	4b;
=:|!	=:|!	=:|!	=:|!
*>B	*>B	*>B	*>B
4BB	4G	8dnXL	4dd
.	.	16gL	.
.	.	16fJJ	.
=5	=5	=5	=5
4C	8GL	4e	4ee
.	8c	.	.
4D	8B	4f#X	8ddL
.	8AJ	.	8ccJ
4D#	4.B	4f#	8bL
.	.	.	8aJ
4E	.	4g	8gL
.	8c	.	8aJ
=6	=6	=6	=6
8DnXL	8dL	8gL	8bL
8CJ	8e	8aJ	8ccJ
4D	8d	4f#	4a
.	8cJ	.	.
4GG;	4B;	4d;	4g;
4G	4G	8dL	4b
.	.	8eJ	.
=7	=7	=7	=7
4D#	4F#	8f#L	4b
.	.	8aJ	.
8EL	4E	8gL	4b
8DJ	.	8f#J	.
4C	8AL	8eL	4a
.	8BJ	8d#J	.
8BBL	4c	4e	8gL
8AAJ	.	.	8f#J
=8	=8	=8	=8
2BB	8B	4e	2f#
.	4A	.	.
.	.	4d#	.
.	8G	.	.
2C;	2G;	2e;	2e;
=9	=9	=9	=9
4C#	4A	4.e	4g
4D	4A	.	4f#
.	.	[8dnX	.
4GG	4B	8dL]	2e
.	.	16c#L	.
.	.	16BJJ	.
4AA	8AL	4c#	.
.	8GJ	.	.
=10	=10	=10	=10
4D;	4F#;	4A;	4d;
8DL	4F#	4A	4d
8CnXJ	.	.	.
4BB	8GL	4d	4g
.	8FJ	.	.
8CL	8EL	8cL	4g
8BBJ	8GJ	8dJ	.
=11	=11	=11	=11
8AAL	8cL	8eL	4a
8GGJ	8eJ	8cJ	.
4FF	8eL	4A	4a
.	8dJ	.	.
4EE;	4G#;	4e;	4b;
4AA	8AL	4e	4cc
.	8GJ	.	.
=12	=12	=12	=12
4BB	4F#	8eL	4b
.	.	8d#J	.
8C#L	8EL	8eL	4a
8D#J	8BJ	8f#XJ	.
8EL	4.B	8eL	8gL
8F#J	.	8d#J	8f#J
8GL	.	4e	8eL
8AJ	8c	.	8f#J
=13	=13	=13	=13
4B	4.B	4e	4g
4BB	.	4d#	4f#
.	8A	.	.
4E;	4G#;	4B;	4e;
==	==	==	==
*-	*-	*-	*-
!!!hum2abc: -Q ''
!!!title: @{PC#}. @{OTL@@DE}
!!!YOR1: 371 vierstimmige Choralges&auml;nge von Johann Sebastian Bach, 
!!!YOR2: 4th ed. by Alfred D&ouml;rffel (Leipzig: Breitkopf und H&auml;rtel, 
!!!YOR2: c.1875). 178 pp. Plate "V.A.10".  reprint: J.S. Bach, 371 Four-Part 
!!!YOR4: Chorales (New York: Associated Music Publishers, Inc., c.1940).
!!!SMS: B&H, 4th ed, Alfred D&ouml;rffel, c.1875, plate V.A.10
!!!EED:  Craig Stuart Sapp
!!!EEV:  2009/05/22
